X:114
T:Killavil Fancy
M:C
L:1/8
K:G Major
DGBG A2BA|GEE2 cEGE|DGBG A2BA|GEED EFGA|!
B3d A2BA|GEE2 cEGE|DGBG A2BA|GEED EFGA|]!
GABd edge|dBB2 dBAB|GABd edge|dBAB GFGA|!
GABd edge|dBB2 dega|bgag egde|gedB AGEG|]!
